**kern	**kern
*staff1	*staff1
*head[head1a]	*head[head1a]
*head[head1b]	*head[head1b]
*head[head1aa]	*head[head1aa]
*solo1[solo1a]	*solo1[solo1a]
*solo1[solo1b]	*solo1[solo1b]
*solo1[solo1aa]	*solo1[solo1aa]
=1-	=1-	!!Intro
*clefG2	*clefG2
*k[]	*k[]
*B-:	*B-:
*M4/4	*M4/4
1r	.
=2	=2
1r	.
=3	=3	!!Head
*>head1a	*>head1a
{4g/	1B-:maj
4b-\	.
8dd\L	.
8ee-\	.
8dd\	.
8cc\J	.
=4||	=4||
8b-/L	2C:min
8g/	.
8e-/	.
8c/J	.
8d-/L	2F:dom
8a/	.
8g/	.
8g-/J	.
=5	=5
8f/L	2D:min
8e-/	.
8d/	.
[8e-/J	.
4.e-/]	2G:dom
16d/LL	.
16d-/JJ	.
=6	=6
8c/L	2C:min
8B-/	.
8A/	.
8c/J	.
8e-/L	2F:dom
8g-/	.
8e-/	.
8c/J	.
=7	=7
8f/L	2F:min
8g/J	.
12a-/L	.
12b-/	.
12a-/J	.
8g/L	2B-:dom
8f/	.
8d/	.
8B-/J	.
=8	=8
8f/L	1E-:maj
8e-/	.
8B-/	.
8G/J	.
8c#/L	.
8d/	.
8B-/	.
8G/J	.
=9	=9
8c/L	1B-:maj
8B-/	.
8c/	.
8B-/J}	.
2r	.
=10	=10
2r	2C:min
24	2F:dom
=11	=11
8r	1B-:maj
{8e/	.
12f\L	.
12b-\	.
12dd\J	.
4ff\	.
4ff\	.
=12||	=12||
4ee-\	2C:min
8ee-\L	.
[8dd\J	.
8dd\L]	2F:dom
8dd\	.
8cc\J	.
8r	.
=13	=13
8r	2D:min
8c#/	.
12d/L	.
12f/	.
12a/J	.
12cc\L	2G:dom
12b\	.
12b\J	.
12a-/L	.
12e/	.
12d-/J	.
=14	=14
12b-\L	2C:min
12cc\	.
12b-\J	.
8a/L	.
8g/J	.
8f/L	2F:dom
8e-/	.
8d/	.
8c/J	.
=15	=15
8B-/L	2F:min
8A/	.
8A-/	.
8B-/J	.
8b/L	2B-:dom
8a-/	.
8g/	.
8f/J	.
=16	=16
8e-/L	2E-:maj
8A/	.
8B-/	.
8c/J	.
4.d-/	2E:o7
[8a/	.
=17	=17
4.a/]	1B-maj
16g/LL	.
16g-/JJ	.
8f/L	.
16e/L	.
16e-/JJ	.
16e-/LL	.
16d/J	.
[8e-/J	.
=18	=18
2e-/]}	1B-:maj
4r	.
8r	.
*>head1b	*>head1b
{8c#/	.
=19	=19
12d/L	1D:dom
12e/	.
12g/J	.
[4b\	.
4b\]	.
8b/L	.
[8a/J	.
=20||	=20||
8a/L]	1D:dom
8g/	.
8g-/	.
8B-/J	.
4d-/}	.
4r	.
=21	=21
8r	1G:dom
{8B/	.
12c/L	.
12e-/	.
12g-/J	.
8b-/L	.
8g-/	.
8e-/	.
8c/J	.
=22	=22
8a/L	1G:dom
8g/	.
8f/	.
8e/J	.
8d/L	.
8c/J	.
12B/L	.
12d/	.
12f/J	.
=23	=23
12a-/L	1C:dom
12b-/	.
12a-/J	.
8g/L	.
8f/J	.
16e/LL	.
16g/	.
16b-/	.
16dd/JJ	.
16ff\LL	.
16dd\	.
16dd#\	.
16ee\JJ	.
=24	=24
16cc\LL	1C:dom
16cc#\	.
16dd\	.
16ccn\JJ	.
16b-/LL	.
16a/	.
16g/	.
16f/JJ	.
16e\LL	.
16g\	.
16b-\	.
32dd\L	.
32cc\JJJ	.
4a/}	.
=25	=25
4r	1C:min
8r	.
{16cc\LL	.
16b\JJ	.
8b-/L	.
8a/	.
8g/	.
8f/J	.
=26	=26
8e-/L	1F:dom
8G/	.
8B-/	.
8d/J	.
8c/L	.
8B-/J	.
12c/L	.
12e-/	.
12g-/J	.
=27	=27
*>head1aa	*>head1aa
8f/L	1B-:maj
8e-/J	.
12d/L	.
12f/	.
12a/J	.
8cc/L	.
8b-/	.
8a/	.
8g/J	.
=28||	=28||
8b-/L	2C:min
8g/J}	.
4r	.
4r	2F:dom
8r	.
{16g/LL	.
16g-/JJ	.
=29	=29
8f/L	2B-:maj
8e-/	.
8d/	.
8c/J	.
8B/L	2G:dom:9-
8a-/	.
8g/	.
8f/J	.
=30	=30
8e-/L	2C:min
8G/	.
8B-/	.
8d/J	.
8c/L	2F:dom
8B-/J	.
16A/LL	.
16c/	.
16e-/	.
16g-/JJ	.
=31	=31
8f/L	2F:min
8d/J	.
12e-/L	.
12g/	.
12b-/J	.
8cc\L	2B-:dom
8bn\	.
8b-\	.
8a-\J	.
=32	=32
8g/L	2E-:maj
8f/	.
8e-/	.
8c/J	.
4f#/	2E-min
8dd\L	.
8cc\J	.
=33	=33
8b-/L	1B-:maj
8a/	.
8cc/	.
8a/J	.
8b-/L	.
[8f/J	.
4f/]	.
=34	=34
4r	2C:min
8r	.
[8ee-\	.
8ee-\L]	2F:dom
8ee-\	.
8dd\	.
8b-\J}	.
=35	=35
1r	.
=36	=36
1r	.
=37	=37
1r	.
=38	=38
1r	.
=39	=39
1r	.
=40	=40
1r	.
=41	=41
1r	.
=42	=42
1r	.
=43	=43
1r	.
=44	=44
1r	.
=45	=45
1r	.
=46	=46
1r	.
=47	=47
1r	.
=48	=48
1r	.
=49	=49
1r	.
=50	=50
1r	.
=51	=51
1r	.
=52	=52
1r	.
=53	=53
1r	.
=54	=54
1r	.
=55	=55
1r	.
=56	=56
1r	.
=57	=57
1r	.
=58	=58
1r	.
=59	=59
1r	.
=60	=60
1r	.
=61	=61
1r	.
=62	=62
1r	.
=63	=63
1r	.
=64	=64
1r	.
=65	=65
1r	.
=66	=66
2r	.
4r	.
8r	.
*>solo1a	*>solo1a
{8dd\	.
=67	=67	!!Chorus 1
8ee-\L	1B-:maj
8ff\	.
8dd\	.
8cc\J	.
8b-/L	.
8a/	.
8cc/	.
8a/J	.
=68||	=68||
8b-/L	2C:min
8f/	.
8d/	.
8B-/J	.
8d-/L	2F:dom
8a/	.
8g/	.
8g-/J	.
=69	=69
8f/L	2D:min
8e/	.
8e-/	.
8d/J	.
8a-/L	2G:dom
8en/	.
8d-/	.
8B/J	.
=70	=70
8g/L	2C:min
16e-/L	.
16d/J	.
8c/	.
8B-/J	.
8A/L	2F:dom
8f#/	.
8e-/	.
8en/J	.
=71	=71
8f/L	2F:min
8e-/J	.
12d/L	.
12f/	.
12a/J	.
8cc\L	2B-:dom
8b\	.
8b-\	.
8a-\J	.
=72	=72
4g/	2E-:maj
8r	.
[8b-\	.
8b-\L]	2E-:min
8b-\J	.
4g-/	.
=73	=73
8r	2B-:maj
[8b-\L	.
8b-\]	.
16cc\L	.
16b-\JJ	.
4f/	2G:dom
8r	.
[8b-\	.
=74	=74
8b-\L]	2C:min
16cc\L	.
16b-\J	.
8e\	.
[8b-\J	.
12b-\L]	2F:dom
12cc\	.
12b-\J	.
4e-/}	.
=75	=75
8r	1B-:maj
{8c#/	.
12d/L	.
12f/	.
12a/J	.
8cc/L	.
8a/J	.
12b-\L	.
12cc\	.
12dd\J	.
=76||	=76||
8ff\	2C:min
8r	.
8ff\L	.
8ee-\J	.
8r	2F:dom
8ee-\L	.
8cc\J	.
8r	.
=77	=77
4r	2B-:maj
8dd\L	.
8ee-\J	.
8dd\L	2G:dom
8cc\	.
8b\	.
8dd\J	.
=78	=78
8cc/L	2C:min
8g/	.
8b-/	.
8g/J	.
8a/L	2F:dom
8f#/	.
8e-/	.
8en/J	.
=79	=79
8f/L	2F:min
8c#/J	.
12d/L	.
12f/	.
12a/J	.
8cc\L	2B-:dom
8b\	.
8b-\	.
8a-\J	.
=80	=80
8g/L	1E-:maj
8f/	.
8e-/	.
8c/J	.
4b-\	1E-:min
8r	.
16dd\LL	.
16cc\JJ	.
=81	=81
8b-/L	1B-maj
8a/	.
8cc/	.
8a/J	.
8b-/L	.
[8f/J	.
4f/]}	.
=82	=82
1r	1B-:maj
=83	=83
8r	1D:dom
*>solo1b	*>solo1b
{8B/	.
12c/L	.
12e-/	.
12g-/J	.
8b-/L	.
8g-/	.
8e-/	.
8c/J	.
=84||	=84||
8a/L	1D:dom
8g/J	.
12f#/L	.
12a/	.
12cc/J	.
4.ee-\	.
8ff\	.
=85	=85
4dd\}	1G:dom
4r	.
8r	.
{8c#/L	.
8d/	.
8e/J	.
=86	=86
8f/L	1G:dom
8g/	.
8a-/	.
8g/J	.
8f/L	.
8e-/	.
8d/	.
8c/J	.
=87	=87
8a/L	1C:dom
16a-/L	.
16g/J	.
8g-/	.
8d/J	.
8B-/L	.
8G/	.
8c/	.
8A/J	.
=88	=88
16B-/LL	1C:dom
16c/	.
16d/	.
16f/J	.
8a/	.
8g/J	.
8e/L	.
8c/	.
8c#/	.
8d/J	.
=89	=89
8B-/L	2C:min
8G/J	.
20A/LL	.
20c/	.
20e-/	.
20g/	.
20b-/JJ	.
8dd\L	.
8cc\J}	.
4r	.
=90	=90
1r	1F:dom
=91	=91
8r	1B-:maj
*>solo1aa	*>solo1aa
{8d/	.
12e-/L	.
12d/	.
12B-/J	.
4.e-/	.
[8d/	.
=92||	=92||
8d/]	2C:min
24e-/LL	.
24d/	.
24B-/JJ	.
4c/	.
4r	2F:dom
8r	.
8c#/	.
=93	=93
12d/L	2D:min
12f/	.
12a/J	.
8cc\L	.
8b-\J	.
8bn/L	2D-:min
8a-/	.
8e/	.
8d-/J	.
=94	=94
8b-/L	2C:min
8c/	.
8d/	.
[8e-/J	.
4e-/]}	2F:dom
4r	.
=95	=95
8r	2F:min
{8d/	.
12e-/L	.
12d/	.
12B-/J	.
4.e-/	2B-:dom
[8d/	.
=96	=96
24d/LL]	2E-:maj
24e-/	.
24d/JJ	.
8B-/	.
4c/	.
4r	2E-:min
8r	.
16dd\LL	.
16cc\JJ	.
=97	=97
8b-/L	1B-:maj
8g/	.
8e-/	.
8c/J	.
8d/L	.
8B-/	.
8G/	.
8A/J	.
=98	=98
8c/L	1B-:maj
8A/	.
8B-/	.
[8a/J	.
4a;/]}	.
4r	.
==	==
*-	*-
